Obsidian/actions/24s/rime-disable.svg

<svg height="24" width="24" xmlns="http://www.w3.org/2000/svg"><path d="m4 15h8v-4l-4-3-4 3zm0-14h8v4l-4 3-4-3z" fill="none" stroke="#bebebe" stroke-width="2" transform="translate(4 4)"/></svg>

<svg xmlns="http://www.w3.org/2000/svg" width="24" height="24" version="1.1">
 <defs>
  <style id="current-color-scheme" type="text/css">
   .ColorScheme-Text { color:#bebebe; } .ColorScheme-Highlight { color:#4285f4; }
  </style>
 </defs>
 <g transform="matrix(1,0,0,1,4,4)">
  <path class="ColorScheme-Text" d="M 4,15 H 12 V 11 L 8,8 4,11 Z M 4,1 H 12 V 5 L 8,8 4,5 Z" style="fill:none;stroke:currentColor;stroke-width:2"/>
 </g>
</svg>
